www/assets/icons/do_not_disturb_on_total_silence.svg

<svg xmlns="http://www.w3.org/2000/svg" width="24" height="24" viewBox="0 0 24 24" fill='currentColor'><path d="M12 2C6.48 2 2 6.48 2 12s4.48 10 10 10 10-4.48 10-10S17.52 2 12 2m0 18c-4.41 0-8-3.59-8-8s3.59-8 8-8 8 3.59 8 8-3.59 8-8 8m0-14c-3.3 0-6 2.7-6 6s2.7 6 6 6 6-2.7 6-6-2.6-6-6-6m3 7H9v-2h6z"/></svg>

<svg width="24" height="24" viewBox="0 0 24 24" xmlns="http://www.w3.org/2000/svg" fill='currentColor'><path d="M12 2C6.48 2 2 6.48 2 12C2 17.52 6.48 22 12 22C17.52 22 22 17.52 22 12C22 6.48 17.52 2 12 2ZM12 20C7.59 20 4 16.41 4 12C4 7.59 7.59 4 12 4C16.41 4 20 7.59 20 12C20 16.41 16.41 20 12 20ZM12 6C8.7 6 6 8.7 6 12C6 15.3 8.7 18 12 18C15.3 18 18 15.3 18 12C18 8.7 15.4 6 12 6ZM15 13H9V11H15V13Z"/></svg>
